X:1
T:I Bibelen Står
T:I Bibelen Står
T:Ole Andersen Mærli, Sørum
C:Ole Andersen Mærli, Sørum
L:1/8
M:3/4
K:G
V:1 treble nm="Piano" snm="Pno."
V:1
 G2 |"B" ^D3 F F2 |"Em" E4 B2 | B3 c B2 |"Bm" d3 c B2 |"B" B3 A F2 |"Em" G4 F2 | G3 B A2 | %8
w: I|Bi- be- len|står at|Naa- man hos|Kon- gen i|Sy- ri- en|var en|me- get- vel-|
"Bm" B3 c B2 |"B" B3 A F2 |"Em" G4 F2 | E2 E2 E2 |"B" ^D2 E2 F2 | A2 F2"Em" G2 |"B" B,4 B2 | %15
w: ag- tet- og|dra- be- lig|Mand, be-|trod af sin|Her- re den|yp- per- ste|Stand, Lyk-|
"Bm" d3 ^c B2 |"F#" ^A3 B ^c2 |"Bm" d2 ^c2"F#" ^A2 |"Bm" B4 F2 |"Em" G2 B2"B" ^D2 |"Em" E4"B" F2 | %21
w: sal- ig i|Stri- den, i|Se- der re-|alsk, dog|var han spe-|dalsk, dog|
"Em" G2 B2"B" ^D2 |"Em" E4 z2 |] %23
w: var han spe-|dalsk.|

